src/16/panel/process-syncing-up.svg

<svg xmlns="http://www.w3.org/2000/svg" width="16" height="16"><defs><style id="current-color-scheme" type="text/css">.ColorScheme-Text{color:#dfdfdf;}.ColorScheme-Highlight{color:#5294e2;}</style></defs><defs><style id="current-color-scheme" type="text/css"></style></defs><path d="M2 1c-.554 0-1 .446-1 1v2.283A1.958 1.958 0 0 1 2 4h2.586l1.707-1.707A1 1 0 0 1 7 2h1c0-.554-.446-1-1-1zm5 2L5 5H2c-.554 0-1 .446-1 1v7c0 1.108.892 2 2 2h10c1.108 0 2-.892 2-2V4c0-.554-.446-1-1-1zm1 3l3 4H9v4H7v-4H5z" fill="currentColor" class="ColorScheme-Text"/></svg>

<svg xmlns="http://www.w3.org/2000/svg" width="16" height="16" version="1.1">
 <defs>
  <style id="current-color-scheme" type="text/css">
   .ColorScheme-Text { color:#dfdfdf; } .ColorScheme-Highlight { color:#4285f4; }
  </style>
 </defs>
 <path style="fill:currentColor" class="ColorScheme-Text" d="M 2,1 C 1.446,1 1,1.446 1,2 V 4.2832 C 1.2965,4.1077 1.636,4 2,4 H 3 4 4.5859 L 6.293,2.293 C 6.4805,2.1054 6.7348,2.0001 7,2 H 8 C 8,1.446 7.554,1 7,1 Z M 7,3 5,5 H 4 3 2 C 1.446,5 1,5.446 1,6 V 7 8 10 11 13 C 1,14.108 1.892,15 3,15 H 13 C 14.108,15 15,14.108 15,13 V 11 10 4 C 15,3.446 14.554,3 14,3 Z M 8,6 11,10 H 9 V 14 H 7 V 10 H 5 Z"/>
</svg>
